X: 22002
T: Kitty's Rambles
R: jig
M: 6/8
K: Dmixolydian
|:FDD c2A|dA/B/d efg|fed ^cAG|F/G/AF GFE|
FDD c2A|dA/B/d efg|fed cAG|1 Ad^c dAG:|2 FAd d2A||
|:dfa dfa|daf g2f|ecg ecg|ecg gfe|
~f3 gfg|~a3 efg|fed cAG|1 Ad^c d2A:|2 Ad^c dfg||
|:afd d^cd|Adf afd|gec cBc|Gce gfe|
fAf gfg|~a3 efg|fed cAG|1 Ad^c dfg:|2 Ad^c dAG||

